modules/linea-weather/icons/weather-snow.svg

<svg xmlns="http://www.w3.org/2000/svg" width="64" height="64" viewBox="0 0 64 64"><path fill="none" stroke="#000" stroke-width="2" stroke-miterlimit="10" d="M55 40c4.565 0 8-3.435 8-8 0-4.565-3.435-9-8-9 0-11.414-9.586-20-21-20-10.102 0-19.2 6.423-21 16h-2C5.292 19 1 24.292 1 30s4.292 10 10 10h44zm-33 3v5m0 4v5m5-12l-3 3m-4 4l-3 3m10 0l-3-3m-4-4l-3-3m12 5h-5m-4 0h-5m27-2v5m0 4v5m5-12l-3 3m-4 4l-3 3m10 0l-3-3m-4-4l-3-3m12 5h-5m-4 0h-5"/></svg>

<svg xmlns="http://www.w3.org/2000/svg" width="64" height="64" viewBox="0 0 64 64"><path fill="none" stroke="#000" stroke-width="2" stroke-miterlimit="10" d="M55 40c4.565 0 8-3.435 8-8 0-4.565-3.435-9-8-9 0-11.414-9.586-20-21-20-10.102 0-19.2 6.423-21 16h-2C5.292 19 1 24.292 1 30s4.292 10 10 10h44zM22 43v5M22 52v5M27 45l-3 3M20 52l-3 3M27 55l-3-3M20 48l-3-3M29 50h-5M20 50h-5M42 48v5M42 57v5M47 50l-3 3M40 57l-3 3M47 60l-3-3M40 53l-3-3M49 55h-5M40 55h-5"/></svg>
